X: 1
T:Lucky in Love
R:reel
D:John McKenna
D:Conal O'Grada: Top of Coom
Z:id:hn-reel-351
M:C|
K:G
~g3d BGGA|BGdB cA~A2|~g3d ~B3d|1 cAdc BG~G2:|2 cAdc BGGA||
|:(3BAG dG eGdG|BGdB cA~A2|1 BGdG eGdB|cedc BGGA:|2 GABd e2ag|fdef gaba||
"Variations"
|:gagd BGGA|BGdB cA~A2|g2gd BGAB|1 cBAc BG~G2:|2 cBAc BGGA||
|:BGdG eGdG|BGdB cAAc|1 BGdG eBdB|cBAc BGGA:|2 BGBd eaag|fdef gbaf||
